X:1
T:Title
L:1/8
Q:1/4=280
M:3/2
K:A
V:1 treble nm="Church Organ, Staff"
V:1
 E4 A8 | c4 e4 d4 | c4 B8 | A4 G8 | F4 E8 | F4 G4 A4 | B4 c8 | c4 c8 | G4 A8 | B4 c8 | G4 A8 | %11
w: By~G.~F.~Terry *|||||||||||
 B4 c8 | A4 A8- | A4 A8- | A4 A8 | e4 e6 d2 | c2 B2 A8 | A4 B6 A2 | B2 c2 A8 | A4 d8 | d4 c8 | %21
w: ||||||||||
 A4 A4 G4 | A4 B8 | E4 c8 | c4 G8 | G4 A8 | B4 c8 | A4 A6 A2- | A8- A3/2 z/ A2- | A12 |] %30
w: |||||||||

